X:1
T:Let Every Heart Rejoice and Sing
T:George James Webb, 1848
T:Let Every Heart Rejoice and Sing
T:Public Domain
T:Public Domain
T:Public Domain
C:George James Webb, 1848
Z:Public Domain
%%score ( 1 2 ) ( 3 4 )
L:1/8
M:4/4
K:F
V:1 treble 
V:2 treble 
V:3 bass 
V:4 bass 
V:1
 [CF][CF][FA] | [Ac]2 [Ac]2 [Ac]2 [Ac]2 | [Af]6 [Gc]2 | [FA]2 (F>G) [FA]2 [EG]2 | %4
w: 1.~Let ev- ery|heart re- joice and|sing, Let|chor- al * an- thems|
w: 2.~He bids the|sun to rise and|set; In|Heav’n His * power is|
 F4 z [CF][CF][FA] | [Ac]2 [Ac]2 [Ac]2 [Ac]2 | [Af]6 [Gc]2 | [FA]2 (F>G) [FA]2 [EG]2 | F4 z || %9
w: Ye ag- èd men,|child- ren, bring To|God your|sac- ri- * fice. For|is|
w: And earth, sub- dued|Him, shall yet Bow|low be-|fore His * throne. *||
"^Refrain" ([FA]>[GB]) | [Ac]2 [FA]2 [EG]2 ([GB]>[Ac]) | [Bd]2 [Ac]2 [GB]2 ([FA]>[GB]) | %12
w: the *|Lord is good, And *|kind are all His *|
w: |||
 [Ac]2 ([Af][ce]) ([Bd][Ac])([GB][FA]) | ([FA]2 [EG]2) z [CF][CF][FA] | [Ac]2 [Ac]2 [Ac]2 [Ac]2 | %15
w: ways; With * songs * and *|hon- * ors sound- ing|loud, The Lord Je-|
w: |||
 [Af]6 (c>B) | [FA]2 (F>G) [FA]2 [EG]2 | F6 A>B | c2 G>A B2 F>G | A2 D>E F2 [FA]2 | %20
w: ho- vah *|While the * rocks and|rills, While the|hills A glor- ious an- them|grate- ful song, And the|
w: |||||
 G2 [Ec]2 ([Ge][Fd])([Ec][D=B]) | [Ec]6 [GB]2 | [FA]2 [Ff]2 ([Ge][Bd])([Ac][GB]) | %23
w: thers praise, And * the *|of our|fa- thers praise. * * *|
w: |||
 [FA]2 [Ff]2 ([Ge][Bd])[Ac][GB] | [FA]>[FA] [FA]2 [FB]2 [Fd]2 | [Fc]6 F>F | %26
w: |||
w: |||
 F>F [FB]2 [FA]2 [EGc]2 | [Ff]4 z |] %28
w: ||
w: ||
V:2
 x3 | x8 | x8 | x2 F2 x4 | F4 x4 | x8 | x8 | x2 F2 x4 | F4 x || x2 | x8 | x8 | x8 | x8 | x8 | %15
w: |||rise;|and|||He|good,|||||||
w: |||known;|to|||||||||||
 x6 G2 | x2 F2 x4 | F6 A>B | c2 G>A B2 F>G | A2 D>E F2 x2 | G2 x6 | x8 | x8 | x8 | x8 | x6 F>F | %26
w: praise;|the|vales and the|raise; Let each pro- long the|God of our fa-|God||||||
w: |||||||||||
 F>F x6 | x5 |] %28
w: ||
w: ||
V:3
 [F,A,][F,A,][F,C] | [F,C]2 [F,C]2 [F,C]2 [F,C]2 | [F,C]6 [E,C]2 | %3
 (F,>G,) ([A,C]>[B,D]) C2 [C,B,]2 | [F,A,]4 z [F,A,][F,A,][F,C] | [F,C]2 [F,C]2 [F,C]2 [F,C]2 | %6
 [F,C]6 [E,C]2 | (F,>G,) ([A,C]>[B,D]) C2 [C,B,]2 | [F,A,]4 z || z2 | z2 (F,A,) [C,C]2 z2 | %11
 z2 [C,C]2 [F,C]2 z2 | z2 [F,C]2 [F,C]2 [F,C]2 | [C,C]4 z [F,A,][F,A,][F,C] | %14
 [F,C]2 [F,C]2 [F,C]2 [F,C]2 | [F,C]6 [E,D]2 | (F,>G,) ([A,C]>[B,D]) C2 [C,B,]2 | [F,A,]6 A,>B, | %18
 C2 G,>A, B,2 F,>G, | A,2 D,>E, F,2 [F,C]2 | [E,C]2 [D,G,]2 G,2 G,2 | [C,G,]6 [E,C]2 | %22
 [F,C]2 [A,C]2 C2 [C,C]2 | [F,C]2 [A,C]2 C2 [C,C][C,C] | [F,C]>[F,C] [F,C]2 [D,B,]2 [B,,B,]2 | %25
 [F,A,]6 [A,,C]>[A,,C] | [D,A,]>[D,A,] [B,,D]2 [C,C]2 [C,B,]2 | [F,A,]4 z |] %28
V:4
 x3 | x8 | x8 | C2 x/ C2 x7/2 | x8 | x8 | x8 | C2 x/ C2 x7/2 | x5 || x2 | x2 F,2 x4 | x8 | x8 | %13
 x8 | x8 | x8 | C2 x/ C2 x7/2 | x6 A,>B, | C2 G,>A, B,2 F,>G, | A,2 D,>E, F,2 x2 | x4 G,2 G,2 | %21
 x8 | x4 C2 x2 | x4 C2 x2 | x8 | x8 | x8 | x5 |] %28

